X:3301
T:The Music Makars
P:At the Fair
C:Trad. (Harding's Coll.)
R:Reel (8x32)
B:RSCDS 33-1
Z:Anselm Lingnau <anselm@strathspey.org>
M:2/4
L:1/16
K:C
|:"C"c2ec g2ec|c2ec "G"Bcde|"C"c2ec g2fe|"Dm"fedc "G7"Bcde|
  "C"c2ec g2ec|c2ec "G7"Bcde|\
      "Am"c2ec "Em"g2fe|"Dm/F"fe"D7/F#"dc "G"Bc"E7/G#"de|
  "Am"c2ec "Em/G"B2eB|"F"A2cA "C/E"G2AG|"G7/D"F2GF "C"EGce|"D7"dABc "G"edBG|
  "Am"c2ec "Em/G"B2eB|"F"A2cA "C/E"G2AG|\
    "Dm"F2"G7"GF "C"EGce|1 "F"Ad"G"BG "C"c2G2:|2 "F"Ad"G"BG "C"c2z2|]
